icons/modus-outlined/hat-glasses.svg

<svg xmlns="http://www.w3.org/2000/svg" width="24" height="24" fill="currentColor" viewBox="0 0 24 24">
  <path d="M3.5 9.3 20.5 9.3a.7.7 0 0 1 0 1.4H3.5a.7.7 0 0 1 0-1.4z"/>
  <path fill-rule="evenodd" d="M4.3284441 9.8024836 5.5784441 5.5524836a.7.7 0 0 1 .3117298-.4029211l2.4993583-1.499615.5663279-.0690028L12 4.5176131l3.0441399-.9366594a.7.7 0 0 1 .5660071.0688003l2.4996782 1.4996088a.7.7 0 0 1 .3122719.4029211l1.25 4.25a.7.7 0 0 1-1.3428897.3954119l-1.1721105-3.9884289-1.9980325-1.1987106-2.9533419.9084912a.7.7 0 0 1-.4113251 0l-2.9533419-.9084912-1.9980325 1.1987106-1.1721105 3.9884289a.7.7 0 0 1-1.3428897-.3954119z"/>
  <path d="M8.25 11.9A3.35 3.35 0 1 1 8.25 18.6A3.35 3.35 0 1 1 8.25 11.9M8.25 13.3A1.95 1.95 0 1 0 8.25 17.2A1.95 1.95 0 1 0 8.25 13.3z"/>
  <path d="M15.75 11.9A3.35 3.35 0 1 1 15.75 18.6A3.35 3.35 0 1 1 15.75 11.9M15.75 13.3A1.95 1.95 0 1 0 15.75 17.2A1.95 1.95 0 1 0 15.75 13.3z"/>
  <path d="M10.9 14.55h2.2a.7.7 0 0 1 0 1.4h-2.2a.7.7 0 0 1 0-1.4z"/>
</svg>

<svg xmlns="http://www.w3.org/2000/svg" width="24" height="24" fill="currentColor" viewBox="0 0 24 24">
  <path d="M 3.5 9.3 L 20.5 9.3 A 0.7 0.7 0 0 1 20.5 10.7 L 3.5 10.7 A 0.7 0.7 0 0 1 3.5 9.3 Z"/>
  <path fill-rule="evenodd" d="M 4.3284441 9.8024836 L 5.5784441 5.5524836 A 0.7 0.7 0 0 1 5.8901739 5.1495625 L 8.3895322 3.6499475 A 0.7 0.7 0 0 1 8.9558601 3.5809547 L 12 4.5176131 L 15.0441399 3.5809547 A 0.7 0.7 0 0 1 15.610147 3.649755 L 18.1098261 5.1495625 A 0.7 0.7 0 0 1 18.4215559 5.5524836 L 19.6715559 9.8024836 A 0.7 0.7 0 0 1 18.3284441 10.1975164 L 17.1555453 6.2096604 L 15.1575168 5.0108433 L 12.2058601 5.9190453 A 0.7 0.7 0 0 1 11.7941399 5.9190453 L 8.8424832 5.0108433 L 6.8444547 6.2096604 L 5.6715559 10.1975164 A 0.7 0.7 0 0 1 4.3284441 9.8024836 Z"/>
  <path fill-rule="evenodd" d="M 8.2500184 18.6 A 3.3500697 3.3500697 0 0 0 11.6 15.2500185 A 3.3500698 3.3500698 0 0 0 8.2500184 11.9 A 3.350038 3.350038 0 0 0 4.8999999 15.24999 A 3.3500378 3.3500378 0 0 0 8.2496177 18.5999998 Z M 8.2503566 17.2 A 1.9500697 1.9500697 0 0 0 10.2 15.2499816 A 1.9500698 1.9500698 0 0 0 8.2499815 13.3 A 1.950038 1.950038 0 0 0 6.2999999 15.2496847 A 1.9500378 1.9500378 0 0 0 8.25001 17.1999998 Z"/>
  <path fill-rule="evenodd" d="M 15.7500184 18.6 A 3.3500698 3.3500698 0 0 0 19.1 15.2500184 A 3.3500697 3.3500697 0 0 0 15.7500185 11.9 A 3.3500059 3.3500059 0 0 0 12.3999999 15.2499984 A 3.3500058 3.3500058 0 0 0 15.7494867 18.5999998 Z M 15.7502536 17.1999999 A 1.9500698 1.9500698 0 0 0 17.7 15.2499815 A 1.9500697 1.9500697 0 0 0 15.7499816 13.3 A 1.9500059 1.9500059 0 0 0 13.7999999 15.2500016 A 1.9500058 1.9500058 0 0 0 15.7500016 17.1999999 Z"/>
  <path d="M 10.9 14.55 L 13.1 14.55 A 0.7 0.7 0 0 1 13.1 15.95 L 10.9 15.95 A 0.7 0.7 0 0 1 10.9 14.55 Z"/>
</svg>
